build/img/svg/vk.svg

<svg width="14" height="9" viewBox="0 0 14 9" fill="none" xmlns="http://www.w3.org/2000/svg">
<path d="M4.0918 7.35352L6.04297 0.46875H7.2207L4.56641 9H3.62891L0.980469 0.46875H2.15234L4.0918 7.35352ZM10.291 5.06836L9.45312 6.08203V9H8.38086V0.46875H9.45312V4.58789L10.1562 3.65625L12.4531 0.46875H13.7422L10.9707 4.22461L13.959 9H12.6758L10.291 5.06836Z" fill="white"/>
</svg>

<svg width="14" height="9" fill="none" xmlns="http://www.w3.org/2000/svg"><path d="M4.092 7.354L6.043.469h1.178L4.566 9H3.63L.98.469h1.172l1.94 6.885zm6.199-2.286l-.838 1.014V9H8.381V.469h1.072v4.119l.703-.932L12.453.47h1.29L10.97 4.225 13.959 9h-1.283L10.29 5.068z" fill="#fff"/></svg>
